X: 1
T: the Meeting of the Waters
R: march
Z: 1997 by John Chambers <jc:trillian.mit.edu>
M: C
L: 1/8
K: D
AB \
| "D"d2 df A2 d>c | "G"Bd BG "D"A2 d>e | fa Aa gf ed | "A7"f4 e2 AB \
| "D"d2 df A2 d>c | "G"Bd BG "D"A2 d>e | "D"fa gf "A7"gA ce | "D"d2- "G"d2- "D"d2 :|
|: fg \
| "D"a>g fa d2 fd | "G"B<d BG "D"A2 d>e | fa Aa gf ed | "A7"f4 e2 fg \
| "D"a>g fa d2 fd | "G"B<d BG "D"A2 d>e | "D"fa gf "A7"gA ce | "D"d2- "G"d2- "D"d2 :|
|: AB \
| "D"d2 d>e f2 fg | aA Bd A2 a>g | fA fg af ed | "A7"f4 e2 AB \
| "D"d2 d>e f2 fg | "D"af ed "G"B2 d>e | "D"fa gf "A7"gA ce | "D"d2- "G"d2- "D"d2 :|
|: a>g \
| "D"f2 a>g fa fA | "G"Bd gB "D"A2 d>c | "G"BG Bd gf ed | "A7"f4 e2 a>g \
| "D"f2 a>g fa fA | "G"Bd gB "D"A2 d>e | "D"fa gf "A7"gA ce | "D"d2- "G"d2- "D"d2 :|
